src/assets/outline/ArrangeCircle.svg

<svg width="24" height="24" viewBox="0 0 24 24"  xmlns="http://www.w3.org/2000/svg">
<path d="M16.8597 10.64C16.6697 10.64 16.4797 10.57 16.3297 10.42L13.2898 7.38004C12.9998 7.09004 12.9998 6.61004 13.2898 6.32004C13.5798 6.03004 14.0598 6.03004 14.3498 6.32004L17.3898 9.36002C17.6798 9.65002 17.6798 10.13 17.3898 10.42C17.2398 10.56 17.0497 10.64 16.8597 10.64Z" />
<path d="M13.8198 17.8998C13.4098 17.8998 13.0698 17.5598 13.0698 17.1498V6.83984C13.0698 6.42984 13.4098 6.08984 13.8198 6.08984C14.2298 6.08984 14.5698 6.42984 14.5698 6.83984V17.1498C14.5698 17.5698 14.2298 17.8998 13.8198 17.8998Z" />
<path d="M10.1801 17.8998C9.99009 17.8998 9.80009 17.8298 9.65009 17.6798L6.61008 14.6398C6.32008 14.3498 6.32008 13.8698 6.61008 13.5798C6.90008 13.2898 7.38011 13.2898 7.67011 13.5798L10.7101 16.6198C11.0001 16.9098 11.0001 17.3898 10.7101 17.6798C10.5701 17.8298 10.3801 17.8998 10.1801 17.8998Z" />
<path d="M10.1797 17.8998C9.76969 17.8998 9.42969 17.5598 9.42969 17.1498V6.83984C9.42969 6.42984 9.76969 6.08984 10.1797 6.08984C10.5897 6.08984 10.9297 6.42984 10.9297 6.83984V17.1498C10.9297 17.5698 10.5997 17.8998 10.1797 17.8998Z" />
<path d="M12 22.75C6.07 22.75 1.25 17.93 1.25 12C1.25 6.07 6.07 1.25 12 1.25C17.93 1.25 22.75 6.07 22.75 12C22.75 17.93 17.93 22.75 12 22.75ZM12 2.75C6.9 2.75 2.75 6.9 2.75 12C2.75 17.1 6.9 21.25 12 21.25C17.1 21.25 21.25 17.1 21.25 12C21.25 6.9 17.1 2.75 12 2.75Z" />
</svg>

<?xml version="1.0" encoding="UTF-8"?>
<svg width="24" height="24" viewBox="0 0 24 24" xmlns="http://www.w3.org/2000/svg">
 <path d="m16.86 10.64c-0.19 0-0.38-0.07-0.53-0.22l-3.0399-3.04c-0.29-0.29-0.29-0.77 0-1.06s0.77-0.29 1.06 0l3.04 3.04c0.29 0.29 0.29 0.76998 0 1.06-0.15 0.14-0.3401 0.22-0.5301 0.22z"/>
 <path d="m13.82 17.9c-0.41 0-0.75-0.34-0.75-0.75v-10.31c0-0.41 0.34-0.75 0.75-0.75s0.75 0.34 0.75 0.75v10.31c0 0.42-0.34 0.75-0.75 0.75z"/>
 <path d="m10.18 17.9c-0.19001 0-0.38001-0.07-0.53001-0.22l-3.04-3.04c-0.29-0.29-0.29-0.77 0-1.06s0.77003-0.29 1.06 0l3.04 3.04c0.29 0.29 0.29 0.77 0 1.06-0.14 0.15-0.33 0.22-0.53 0.22z"/>
 <path d="m10.18 17.9c-0.41001 0-0.75001-0.34-0.75001-0.75v-10.31c0-0.41 0.34-0.75 0.75001-0.75 0.41 0 0.75 0.34 0.75 0.75v10.31c0 0.42-0.33 0.75-0.75 0.75z"/>
 <path d="m12 22.75c-5.93 0-10.75-4.82-10.75-10.75s4.82-10.75 10.75-10.75 10.75 4.82 10.75 10.75-4.82 10.75-10.75 10.75zm0-20c-5.1 0-9.25 4.15-9.25 9.25s4.15 9.25 9.25 9.25 9.25-4.15 9.25-9.25-4.15-9.25-9.25-9.25z"/>
</svg>
